icons/jquery-filled.svg

<svg width="256" height="256" viewBox="0 0 256 256" fill="none" xmlns="http://www.w3.org/2000/svg">
<rect width="256" height="256" rx="60" fill="url(#paint0_linear_7_245)"/>
<path d="M79.2383 68.7408C69.2524 83.3576 70.4962 102.373 78.1042 117.886L78.6637 118.991L79.0417 119.691C79.1117 119.827 79.1929 119.961 79.2648 120.093C79.3971 120.339 79.5294 120.575 79.6428 120.817L80.3705 122.089L80.7864 122.789L81.6313 124.135L82.0093 124.702C82.3874 125.307 82.8145 125.908 83.2342 126.501C83.2436 126.516 83.2568 126.533 83.2682 126.548C83.3343 126.643 83.4081 126.737 83.4572 126.832C83.8201 127.342 84.2133 127.845 84.5913 128.344L85.0109 128.888L86.0411 130.178L86.4343 130.658C86.9028 131.223 87.3817 131.781 87.8708 132.329L87.901 132.359C87.9199 132.383 87.9388 132.397 87.9577 132.421C88.4316 132.956 88.9181 133.479 89.417 133.99L89.8857 134.47L91.052 135.635L91.5283 136.096C92.0524 136.598 92.5849 137.091 93.1255 137.576L93.4279 137.84L94.8777 139.088L95.4788 139.576L96.6885 140.521L97.335 141.022L99.1836 142.373C99.2308 142.405 99.2724 142.439 99.3197 142.471C99.7544 142.774 100.195 143.067 100.637 143.36L101.208 143.747L103.272 145.033L103.843 145.36L105.393 146.244C105.676 146.399 105.966 146.547 106.249 146.694L107.357 147.261L107.612 147.386L108.066 147.609L109.823 148.437L110.196 148.626C110.874 148.927 111.557 149.216 112.245 149.493L112.744 149.694L114.677 150.423L114.919 150.51C115.633 150.762 116.352 151.002 117.074 151.229L117.594 151.387C118.35 151.614 119.059 151.885 119.819 152.03C168.109 161.02 182.14 122.494 182.14 122.494C170.359 138.126 149.447 142.246 129.635 137.659C128.884 137.47 128.156 137.249 127.423 137.028L126.871 136.839C126.157 136.616 125.446 136.379 124.743 136.134L124.45 136.026C123.821 135.799 123.195 135.563 122.573 135.317L122.044 135.105C121.363 134.832 120.687 134.546 120.017 134.247L119.613 134.066L117.904 133.253L117.413 133.011C116.969 132.788 116.528 132.559 116.089 132.325L115.207 131.852C114.673 131.56 114.145 131.258 113.623 130.947L113.088 130.644C112.392 130.229 111.704 129.794 111.024 129.359C110.835 129.236 110.653 129.106 110.466 128.981L108.997 127.987L108.525 127.647L107.136 126.626L106.519 126.153L105.266 125.155L104.707 124.702L103.147 123.379C103.094 123.331 103.034 123.284 102.958 123.233C102.403 122.736 101.856 122.226 101.318 121.713L100.856 121.26L99.6769 120.084L99.2157 119.611C98.7244 119.101 98.2424 118.582 97.7697 118.054C97.747 118.027 97.7206 118.003 97.6979 117.978C97.1983 117.421 96.7093 116.853 96.2311 116.277L95.8474 115.812L94.7889 114.483L94.4014 113.992L93.1822 112.338C82.1813 97.0558 78.2497 75.9802 87.0202 58.6699L79.2383 68.7408ZM110.237 56.4244C103.017 67.0094 103.408 81.1745 109.041 92.3682C109.983 94.2477 111.05 96.062 112.235 97.7987C113.317 99.377 114.517 101.258 115.953 102.524C116.473 103.091 117.017 103.658 117.573 104.237C117.713 104.382 117.857 104.52 118 104.666C118.54 105.201 119.092 105.724 119.656 106.233C119.679 106.252 119.7 106.274 119.724 106.293C120.36 106.858 121.009 107.406 121.673 107.938L122.112 108.285C122.772 108.805 123.447 109.306 124.134 109.79C124.152 109.805 124.171 109.82 124.191 109.834C124.493 110.047 124.805 110.249 125.113 110.453C125.261 110.552 125.4 110.656 125.548 110.748C126.041 111.071 126.541 111.383 127.047 111.684L127.259 111.809L128.582 112.565C128.737 112.654 128.895 112.731 129.054 112.814L129.999 113.302C130.047 113.327 130.094 113.345 130.139 113.368C130.776 113.689 131.417 113.992 132.073 114.285C132.213 114.347 132.356 114.404 132.5 114.464C133.024 114.691 133.553 114.911 134.088 115.12L134.768 115.374C135.251 115.553 135.736 115.725 136.224 115.89L136.881 116.103C137.575 116.324 138.261 116.6 138.985 116.723C176.269 123.014 184.879 93.7764 184.879 93.7764C177.12 105.155 162.095 110.588 146.058 106.35C145.349 106.161 144.645 105.953 143.947 105.726C143.733 105.66 143.524 105.59 143.312 105.537C142.817 105.374 142.325 105.201 141.836 105.019L141.168 104.766C140.633 104.577 140.104 104.341 139.581 104.114C139.437 104.051 139.293 103.995 139.152 103.929C138.494 103.641 137.845 103.334 137.205 103.008C136.876 102.844 136.553 102.672 136.229 102.501L135.666 102.207C135.25 101.978 134.839 101.742 134.432 101.498L134.137 101.309C133.634 101.008 133.136 100.698 132.644 100.379C132.492 100.28 132.345 100.19 132.194 100.073L131.226 99.4205C130.542 98.9365 129.871 98.4361 129.211 97.9196L128.757 97.5567C121.739 91.9126 116.174 84.2007 113.53 75.4548C110.757 66.3819 111.356 56.2032 116.176 47.9412L110.237 56.4244ZM136.303 47.2229C132.046 53.6042 131.629 61.5279 134.602 68.5745C137.717 76.054 144.1 81.923 151.549 84.7035C151.856 84.8206 152.164 84.9246 152.494 85.0305L152.903 85.1628C153.341 85.3026 153.778 85.4652 154.23 85.5521C174.818 89.6028 180.401 74.7932 181.887 72.6138C176.995 79.7871 168.775 81.509 158.689 79.0159C157.895 78.8174 157.016 78.5244 156.231 78.2485C155.244 77.8913 154.277 77.4819 153.334 77.0217C151.539 76.1415 149.837 75.0834 148.253 73.8632C139.208 66.8884 133.6 53.5853 139.49 42.7507" fill="white"/>
<path d="M90.8364 182.681L89.4415 187.626L90.8364 182.683V182.681ZM98.0116 193.414L96.4749 193.404L98.0116 193.414ZM97.6336 200.797L88.4246 200.831L97.6336 200.797ZM99.5615 193.425L98.0229 193.416L99.5615 193.425ZM98.4615 200.169L100.068 194.051L98.4615 200.169ZM132.353 171.992L129.366 186.042L132.353 171.992ZM124.669 171.992L122.401 182.489L124.669 171.992Z" fill="white"/>
<path d="M131.823 171.359H125.434C125.079 171.359 124.727 171.643 124.652 171.99L120.115 192.985C120.04 193.331 119.688 193.614 119.335 193.614H114.812C110.336 193.614 110.854 190.52 111.787 186.28L111.816 186.152L112.358 183.26L112.592 182.069L114.657 171.99C114.728 171.643 114.496 171.357 114.141 171.357H107.582C107.401 171.363 107.227 171.428 107.086 171.542C106.946 171.656 106.846 171.813 106.803 171.988L103.848 186.002C102.223 193.419 102.654 200.493 111.485 200.714L111.74 200.719H125.599C125.954 200.719 126.304 200.436 126.38 200.088L132.356 171.988C132.432 171.641 132.199 171.357 131.846 171.357L131.823 171.359ZM157.316 193.688C157.672 193.688 157.883 193.971 157.832 194.319L157.212 197.353L157.316 193.688ZM156.592 200.389L157.212 197.353L156.592 200.389ZM155.814 201.027L144.038 201.084L155.814 201.027Z" fill="white"/>
<path d="M140.223 189.783C140.218 189.45 140.596 188.879 140.951 188.879L140.153 188.866C139.775 192.484 140.223 189.783 140.223 189.783ZM144.62 201.082H144.497H144.62ZM157.316 193.688C157.672 193.688 157.883 193.971 157.832 194.319L157.11 197.846L157.316 193.688ZM147.644 201.092H147.618H147.644ZM146.075 201.08H145.985H146.075ZM145.597 201.082H145.446H145.597ZM145.13 201.082H144.998H145.13ZM146.003 201.08H145.616H146.003Z" fill="white"/>
<path d="M147.62 201.092L146.077 201.097L147.62 201.092ZM155.817 201.044L147.642 201.094L155.817 201.044ZM156.573 200.389L157.093 197.848L156.573 200.39V200.389ZM145.429 201.082H145.13H145.467H145.429ZM144.493 201.082H144.04H144.493ZM144.979 201.082H144.601H144.979ZM51.4903 189.858L52.4827 185.458L51.3486 190.486L51.2163 191.117L51.4922 189.855L51.4903 189.858ZM63.3721 171.287H56.3538C56.1724 171.294 55.9981 171.359 55.8563 171.473C55.7145 171.586 55.6126 171.741 55.5656 171.917L54.2349 177.776C54.2125 177.852 54.2088 177.932 54.224 178.01C54.2392 178.087 54.2729 178.16 54.3223 178.222C54.3716 178.284 54.4352 178.333 54.5075 178.365C54.5798 178.397 54.6588 178.411 54.7377 178.406H61.8108C62.1661 178.406 62.5177 178.122 62.5933 177.776L63.8786 171.903C63.9542 171.558 63.7274 171.274 63.3683 171.274L63.3721 171.287ZM61.8448 181.056L59.7656 190.579L61.8448 181.056ZM41.4572 212.612L47.245 212.658C45.5362 212.658 42.7142 212.626 41.4553 212.611L41.4572 212.612Z" fill="white"/>
<path d="M53.4561 181.056L52.4619 185.456L53.4561 181.056ZM61.3382 180.426H54.2632C54.0819 180.433 53.9076 180.498 53.7657 180.612C53.6239 180.725 53.5221 180.88 53.475 181.056L51.4903 189.856L51.2143 191.119L49.3242 200.103C49.2305 200.522 49.117 200.937 48.9839 201.345C48.9839 201.345 47.6608 205.277 45.4417 205.233L43.2396 205.192C43.059 205.197 42.8847 205.259 42.742 205.37C42.5992 205.481 42.4955 205.634 42.4458 205.808L40.9809 211.975C40.9577 212.051 40.9531 212.131 40.9673 212.208C40.9815 212.286 41.0142 212.359 41.0626 212.421C41.1109 212.483 41.1736 212.533 41.2453 212.566C41.3169 212.599 41.3954 212.614 41.4742 212.611L47.2638 212.658C52.8134 212.658 55.7376 209.582 57.6145 200.736L61.8674 181.078C61.943 180.733 61.7124 180.449 61.3571 180.449L61.3382 180.426ZM161.824 200.723C161.469 200.723 161.257 200.44 161.314 200.092L166.635 175.168L161.824 200.723ZM169.219 200.09L171.374 189.452L169.219 200.09Z" fill="white"/>
<path d="M161.391 200.408C161.348 200.234 161.373 199.808 161.448 199.462L163.973 187.63L161.312 200.092C161.236 200.44 161.467 200.723 161.822 200.723H162.469C162.114 200.723 161.433 200.581 161.391 200.408ZM168.801 200.581C168.608 200.657 168.158 200.723 167.803 200.723H168.449C168.63 200.716 168.803 200.65 168.943 200.536C169.083 200.422 169.181 200.265 169.224 200.09L169.353 199.459C169.283 199.806 168.975 200.504 168.786 200.581H168.801ZM170.294 194.771L171.245 190.076L170.294 194.771ZM191.29 176.837L191.583 178.047C191.665 178.393 191.44 178.674 191.086 178.676" fill="white"/>
<path d="M169.347 199.459L170.292 194.771L169.347 199.459ZM191.001 175.574L191.29 176.814L191.001 175.574ZM171.245 190.076L171.506 188.821L172.521 184.067L171.372 189.45L171.245 190.074V190.076ZM166.722 174.758L166.501 175.797L163.975 187.63L166.637 175.168L166.722 174.76V174.758Z" fill="white"/>
<path d="M191.585 178.047L191.292 176.837L190.858 174.947C190.283 172.716 188.597 171.425 184.934 171.425L168.073 171.414C167.892 171.42 167.719 171.485 167.578 171.599C167.438 171.713 167.338 171.87 167.295 172.045L167.034 173.28L166.656 175.145L161.469 199.44C161.393 199.788 161.369 200.196 161.412 200.385C161.456 200.574 162.136 200.701 162.49 200.701H167.82C168.175 200.701 168.623 200.636 168.818 200.559C169.013 200.481 169.298 199.803 169.385 199.436L171.408 189.429L173.572 179.29C173.647 178.944 173.997 178.663 174.351 178.661L191.122 178.653C191.476 178.653 191.701 178.37 191.619 178.024L191.585 178.047ZM213.177 167.097L211.886 167.102H206.518C206.321 167.114 206.13 167.168 205.955 167.26C205.781 167.352 205.629 167.48 205.508 167.635L193.638 185.025C193.438 185.318 193.209 185.275 193.128 184.931L192.254 181.099C192.207 180.924 192.106 180.768 191.964 180.655C191.822 180.542 191.648 180.477 191.466 180.47H183.836C183.48 180.47 183.269 180.748 183.367 181.09L186.769 193.07C186.867 193.41 186.873 193.971 186.788 194.317L185.276 200.115C185.25 200.189 185.243 200.268 185.256 200.346C185.269 200.424 185.301 200.497 185.349 200.559C185.397 200.621 185.46 200.67 185.532 200.702C185.604 200.734 185.683 200.747 185.762 200.74H193.322C193.678 200.74 194.041 200.457 194.128 200.116L195.64 194.319C195.758 193.911 195.944 193.525 196.188 193.178L215.479 167.598C215.693 167.314 215.578 167.084 215.222 167.087L213.2 167.101L213.177 167.097ZM152.547 182.099C152.502 182.477 152.147 182.761 151.791 182.761H142.113C141.779 182.761 141.609 182.534 141.66 182.25L141.667 182.199L141.711 182.035C142.656 179.578 144.518 177.965 148.054 177.965C152.037 177.965 152.814 179.912 152.544 182.099H152.547ZM149.708 170.932C137.29 170.932 134.347 178.47 132.697 186.078C131.045 193.833 131.188 201.086 144.038 201.086H146.075L147.644 201.08L155.821 201.031C156.001 201.023 156.172 200.957 156.311 200.843C156.45 200.729 156.548 200.573 156.59 200.398L157.832 194.327C157.904 193.979 157.672 193.695 157.316 193.695H145.763C141.17 193.695 139.804 192.474 140.306 188.885H158.774C159.076 188.879 159.35 188.696 159.458 188.409C159.477 188.358 159.496 188.303 159.503 188.248C162.244 177.909 161.458 170.94 149.712 170.94L149.708 170.932ZM91.0103 182.058L90.8364 182.676C90.8364 182.678 89.4415 187.62 89.4415 187.62L88.0465 192.561C87.9886 192.736 87.8791 192.888 87.7327 192.999C87.5862 193.109 87.4096 193.173 87.2262 193.181H79.8431C74.2444 193.181 72.8815 188.802 74.2444 182.343C75.6053 175.737 78.2799 171.629 83.7898 171.214C91.3203 170.647 92.8249 175.943 91.0103 182.056V182.058ZM96.0723 192.803C96.0723 192.803 99.5502 184.354 100.344 179.472C101.421 172.937 98.1515 163.462 85.5156 163.462C72.9515 163.462 67.4964 172.508 65.4153 182.364C63.3361 192.268 66.0617 200.956 78.5521 200.888L97.6165 200.818C97.7993 200.809 97.9749 200.744 98.1194 200.632C98.2639 200.519 98.3701 200.365 98.4236 200.19L100.03 194.07C100.056 193.996 100.063 193.916 100.051 193.839C100.039 193.761 100.007 193.688 99.9591 193.626C99.9113 193.563 99.8487 193.514 99.7769 193.482C99.7052 193.45 99.6266 193.436 99.5483 193.442L96.473 193.423C96.1705 193.421 96.0004 193.227 96.0345 192.97C96.042 192.922 96.0534 192.875 96.0723 192.826V192.803Z" fill="white"/>
<path d="M158.267 187.15C158.267 187.384 158.078 187.573 157.844 187.573C157.609 187.573 157.42 187.384 157.42 187.15C157.42 186.915 157.609 186.726 157.844 186.726C158.078 186.726 158.267 186.915 158.267 187.15Z" fill="white"/>
<defs>
<linearGradient id="paint0_linear_7_245" x1="0" y1="0" x2="256" y2="256" gradientUnits="userSpaceOnUse">
<stop stop-color="#FF5C00"/>
<stop offset="1" stop-color="#FF0F00"/>
</linearGradient>
</defs>
</svg>

<svg xmlns="http://www.w3.org/2000/svg" width="256" height="256" fill="none"><rect width="256" height="256" fill="url(#paint0_linear_7_245)" rx="60"/><path fill="#fff" d="M79.238 68.74c-9.986 14.618-8.742 33.633-1.134 49.146l.56 1.105.378.7c.07.136.15.27.223.402.132.246.264.482.378.724l.728 1.272.415.7.845 1.346.378.567c.378.605.805 1.206 1.225 1.799l.034.047c.066.095.14.189.19.284.362.51.755 1.013 1.133 1.512l.42.544 1.03 1.29.393.48q.703.848 1.437 1.671l.03.03c.019.024.038.038.057.062q.71.803 1.459 1.569l.469.48 1.166 1.165.476.461q.787.753 1.597 1.48l.303.264 1.45 1.248.6.488 1.21.945.647.501 1.849 1.351c.047.032.088.066.136.098.434.303.875.596 1.317.889l.571.387 2.064 1.286.571.327 1.55.884c.283.155.573.303.856.45l1.108.567.255.125.454.223 1.757.828.373.189q1.017.451 2.049.867l.499.201 1.933.729.242.087a66 66 0 0 0 2.155.719l.52.158c.756.227 1.465.498 2.225.643 48.29 8.99 62.321-29.536 62.321-29.536-11.781 15.632-32.693 19.752-52.505 15.165-.751-.189-1.479-.41-2.212-.631l-.552-.189a69 69 0 0 1-2.128-.705l-.293-.108a66 66 0 0 1-1.877-.709l-.529-.212a57 57 0 0 1-2.027-.858l-.404-.181-1.709-.813-.491-.242a61 61 0 0 1-1.324-.686l-.882-.473a49 49 0 0 1-1.584-.905l-.535-.303a78 78 0 0 1-2.064-1.285c-.189-.123-.371-.253-.558-.378l-1.469-.994-.472-.34-1.389-1.021-.617-.473-1.253-.998-.559-.453-1.56-1.323a2 2 0 0 0-.189-.146 72 72 0 0 1-1.64-1.52l-.462-.453-1.18-1.176-.46-.473a58 58 0 0 1-1.446-1.557c-.023-.027-.05-.051-.072-.076q-.75-.836-1.467-1.701l-.384-.465-1.058-1.329-.388-.491-1.219-1.654c-11-15.282-14.932-36.358-6.162-53.668zm30.999-12.316c-7.22 10.585-6.829 24.75-1.196 35.944a47 47 0 0 0 3.194 5.43c1.082 1.579 2.282 3.46 3.718 4.726.52.567 1.064 1.134 1.62 1.713.14.145.284.283.427.429q.81.803 1.656 1.567l.068.06a50 50 0 0 0 1.949 1.645l.439.347q.99.78 2.022 1.505.027.023.057.044c.302.213.614.415.922.619.148.099.287.203.435.295q.74.484 1.499.936l.212.125 1.323.756c.155.089.313.166.472.249l.945.488c.048.025.095.043.14.066.637.321 1.278.624 1.934.917.14.062.283.119.427.179a47 47 0 0 0 1.588.656l.68.254q.724.268 1.456.516l.657.213c.694.221 1.38.497 2.104.62 37.284 6.291 45.894-22.947 45.894-22.947-7.759 11.379-22.784 16.812-38.821 12.574a41 41 0 0 1-2.111-.624c-.214-.066-.423-.136-.635-.189a41 41 0 0 1-1.476-.518l-.668-.253c-.535-.189-1.064-.425-1.587-.652-.144-.063-.288-.119-.429-.185a37 37 0 0 1-1.947-.921c-.329-.164-.652-.336-.976-.507l-.563-.294a39 39 0 0 1-1.234-.709l-.295-.189a49 49 0 0 1-1.493-.93c-.152-.099-.299-.189-.45-.306l-.968-.652a52 52 0 0 1-2.015-1.501l-.454-.363c-7.018-5.644-12.583-13.356-15.227-22.102-2.773-9.073-2.174-19.252 2.646-27.514zm26.066-9.201c-4.257 6.381-4.674 14.305-1.701 21.352 3.115 7.479 9.498 13.348 16.947 16.129.307.117.615.22.945.327l.409.132c.438.14.875.302 1.327.39 20.588 4.05 26.171-10.76 27.657-12.94-4.892 7.174-13.112 8.896-23.198 6.403-.794-.199-1.673-.492-2.458-.767a30 30 0 0 1-2.897-1.227 30 30 0 0 1-5.081-3.159c-9.045-6.975-14.653-20.278-8.763-31.112m-48.654 139.93-1.394 4.945 1.394-4.943zm7.176 10.733-1.537-.01zm-.378 7.383-9.21.034zm1.927-7.372-1.538-.009zm-1.1 6.744 1.607-6.118zm33.892-28.177-2.987 14.05zm-7.684 0-2.268 10.497zm7.154-.633h-6.389a.84.84 0 0 0-.782.631l-4.537 20.995a.84.84 0 0 1-.78.629h-4.523c-4.476 0-3.958-3.094-3.025-7.334l.029-.128.542-2.892.234-1.191 2.065-10.079a.508.508 0 0 0-.516-.633h-6.559a.83.83 0 0 0-.779.631l-2.955 14.014c-1.625 7.417-1.194 14.491 7.637 14.712l.255.005h13.859a.84.84 0 0 0 .781-.631l5.976-28.1c.076-.347-.157-.631-.51-.631zm25.493 22.329c.356 0 .567.283.516.631l-.62 3.034zm-.724 6.701.62-3.036zm-.778.638-11.776.057z"/><path fill="#fff" d="M140.223 189.783c-.005-.333.373-.904.728-.904l-.798-.013c-.378 3.618.07.917.07.917m4.397 11.299h-.123zm12.696-7.394c.356 0 .567.283.516.631l-.722 3.527zm-9.672 7.404h-.026zm-1.569-.012h-.09zm-.478.002h-.151zm-.467 0h-.132zm.873-.002h-.387zm1.617.012-1.543.005zm8.197-.048-8.175.05zm.756-.655.52-2.541zm-11.144.693h-.299.337zm-.936 0h-.453zm.486 0h-.378zM51.49 189.858l.993-4.4-1.134 5.028-.133.631.276-1.262zm11.882-18.571h-7.018a.85.85 0 0 0-.788.63l-1.331 5.859a.493.493 0 0 0 .503.63h7.073a.84.84 0 0 0 .782-.63l1.286-5.873c.075-.345-.152-.629-.51-.629zm-1.527 9.769-2.08 9.523zm-20.388 31.556 5.788.046c-1.709 0-4.53-.032-5.79-.047z"/><path fill="#fff" d="m53.456 181.056-.994 4.4zm7.882-.63h-7.075a.85.85 0 0 0-.788.63l-1.985 8.8-.276 1.263-1.89 8.984q-.14.63-.34 1.242s-1.323 3.932-3.542 3.888l-2.202-.041a.85.85 0 0 0-.794.616l-1.465 6.167a.493.493 0 0 0 .493.636l5.79.047c5.55 0 8.474-3.076 10.35-11.922l4.253-19.658c.076-.345-.155-.629-.51-.629zm100.486 20.297c-.355 0-.567-.283-.51-.631l5.321-24.924zm7.395-.633 2.155-10.638z"/><path fill="#fff" d="M161.391 200.408c-.043-.174-.018-.6.057-.946l2.525-11.832-2.661 12.462c-.076.348.155.631.51.631h.647c-.355 0-1.036-.142-1.078-.315m7.41.173c-.193.076-.643.142-.998.142h.646a.83.83 0 0 0 .775-.633l.129-.631c-.07.347-.378 1.045-.567 1.122zm1.493-5.81.951-4.695zm20.996-17.934.293 1.21c.082.346-.143.627-.497.629m-21.739 20.783.945-4.688zm21.654-23.885.289 1.24zm-19.756 14.502.261-1.255 1.015-4.754-1.149 5.383-.127.624zm-4.523-15.318-.221 1.039-2.526 11.833 2.662-12.462.085-.408z"/><path fill="#fff" d="m191.585 178.047-.293-1.21-.434-1.89c-.575-2.231-2.261-3.522-5.924-3.522l-16.861-.011a.83.83 0 0 0-.778.631l-.261 1.235-.378 1.865-5.187 24.295c-.076.348-.1.756-.057.945s.724.316 1.078.316h5.33c.355 0 .803-.065.998-.142.195-.078.48-.756.567-1.123l2.023-10.007 2.164-10.139a.84.84 0 0 1 .779-.629l16.771-.008c.354 0 .579-.283.497-.629zm21.592-10.95-1.291.005h-5.368a1.4 1.4 0 0 0-1.01.533l-11.87 17.39c-.2.293-.429.25-.51-.094l-.874-3.832a.85.85 0 0 0-.788-.629h-7.63c-.356 0-.567.278-.469.62l3.402 11.98c.098.34.104.901.019 1.247l-1.512 5.798a.47.47 0 0 0 .073.444.48.48 0 0 0 .413.181h7.56a.88.88 0 0 0 .806-.624l1.512-5.797c.118-.408.304-.794.548-1.141l19.291-25.58c.214-.284.099-.514-.257-.511l-2.022.014zm-60.63 15.002c-.045.378-.4.662-.756.662h-9.678c-.334 0-.504-.227-.453-.511l.007-.051.044-.164c.945-2.457 2.807-4.07 6.343-4.07 3.983 0 4.76 1.947 4.49 4.134zm-2.839-11.167c-12.418 0-15.361 7.538-17.011 15.146-1.652 7.755-1.509 15.008 11.341 15.008h2.037l1.569-.006 8.177-.049a.83.83 0 0 0 .769-.633l1.242-6.071c.072-.348-.16-.632-.516-.632h-11.553c-4.593 0-5.959-1.221-5.457-4.81h18.468a.74.74 0 0 0 .684-.476.7.7 0 0 0 .045-.161c2.741-10.339 1.955-17.308-9.791-17.308zM91.01 182.058l-.174.618-1.394 4.944-1.395 4.941a.91.91 0 0 1-.82.62h-7.384c-5.599 0-6.962-4.379-5.599-10.838 1.361-6.606 4.036-10.714 9.546-11.129 7.53-.567 9.035 4.729 7.22 10.842zm5.062 10.745s3.478-8.449 4.272-13.331c1.077-6.535-2.192-16.01-14.828-16.01-12.565 0-18.02 9.046-20.1 18.902-2.08 9.904.646 18.592 13.136 18.524l19.064-.07a.89.89 0 0 0 .808-.628l1.606-6.12a.48.48 0 0 0-.07-.444.47.47 0 0 0-.412-.184l-3.075-.019c-.302-.002-.473-.196-.439-.453a.7.7 0 0 1 .038-.144z"/><path fill="#fff" d="M158.267 187.15a.423.423 0 1 1-.847 0 .423.423 0 1 1 .847 0"/><defs><linearGradient id="paint0_linear_7_245" x1="0" x2="256" y1="0" y2="256" gradientUnits="userSpaceOnUse"><stop stop-color="#FF5C00"/><stop offset="1" stop-color="#FF0F00"/></linearGradient></defs></svg>
